svg/ionicons/logo-yahoo.svg

<svg xmlns="http://www.w3.org/2000/svg" width="512" height="512" viewBox="0 0 512 512"><path d="M0 139.009h97.648l56.86 145.729 57.6-145.729h95.066L164.022 484H68.337l39.189-91.417L.003 139.009zM417.5 256H311l94.907-228L512 28.005zm-78.208 21.221c32.672 0 59.156 26.533 59.156 59.258 0 32.727-26.484 59.26-59.156 59.26-32.667 0-59.146-26.533-59.146-59.26 0-32.725 26.483-59.258 59.146-59.258"/></svg>

<svg width="512" height="512" viewBox="0 0 512 512" xmlns="http://www.w3.org/2000/svg">
<path d="M0 139.009H97.6482L154.508 284.738L212.108 139.009H307.174L164.022 484H68.3374L107.526 392.583L0.00302391 139.009H0ZM417.5 256H311L405.907 28L512 28.0045L417.5 256ZM339.292 277.221C371.964 277.221 398.448 303.754 398.448 336.479C398.448 369.206 371.964 395.739 339.292 395.739C306.625 395.739 280.146 369.206 280.146 336.479C280.146 303.754 306.629 277.221 339.292 277.221Z" />
</svg>
